docs/img/top-icon.svg

<svg xmlns="http://www.w3.org/2000/svg" width="34" height="34" viewBox="0 0 34 34">
  <g id="top-icon" transform="translate(-2516 604) rotate(-90)">
    <g id="パス_146" data-name="パス 146" transform="translate(570 2550) rotate(-90)" fill="#222">
      <path d="M 17 33.5 C 12.59269046783447 33.5 8.449179649353027 31.78370094299316 5.33273983001709 28.66725921630859 C 2.216300010681152 25.55081939697266 0.5 21.40731048583984 0.5 17 C 0.5 12.59269046783447 2.216300010681152 8.449179649353027 5.33273983001709 5.33273983001709 C 8.449179649353027 2.216300010681152 12.59269046783447 0.5 17 0.5 C 21.40731048583984 0.5 25.55081939697266 2.216300010681152 28.66725921630859 5.33273983001709 C 31.78370094299316 8.449179649353027 33.5 12.59269046783447 33.5 17 C 33.5 21.40731048583984 31.78370094299316 25.55081939697266 28.66725921630859 28.66725921630859 C 25.55081939697266 31.78370094299316 21.40731048583984 33.5 17 33.5 Z" stroke="none"/>
      <path d="M 17 1 C 12.72624969482422 1 8.708290100097656 2.664289474487305 5.686290740966797 5.686290740966797 C 2.664289474487305 8.708290100097656 1 12.72624969482422 1 17 C 1 21.27375030517578 2.664289474487305 25.29170989990234 5.686290740966797 28.3137092590332 C 8.708290100097656 31.3357105255127 12.72624969482422 33 17 33 C 21.27375030517578 33 25.29170989990234 31.3357105255127 28.3137092590332 28.3137092590332 C 31.3357105255127 25.29170989990234 33 21.27375030517578 33 17 C 33 12.72624969482422 31.3357105255127 8.708290100097656 28.3137092590332 5.686290740966797 C 25.29170989990234 2.664289474487305 21.27375030517578 1 17 1 M 17 0 C 26.38883972167969 0 34 7.611160278320312 34 17 C 34 26.38883972167969 26.38883972167969 34 17 34 C 7.611160278320312 34 0 26.38883972167969 0 17 C 0 7.611160278320312 7.611160278320312 0 17 0 Z" stroke="none" fill="#ccc"/>
    </g>
    <path id="パス_99" data-name="パス 99" d="M612.973,598.461v10h-10" transform="translate(-272.152 2536.218) rotate(-45)" fill="none" stroke="#ccc" stroke-width="1"/>
  </g>
</svg>

<svg height="34" viewBox="0 0 34 34" width="34" xmlns="http://www.w3.org/2000/svg"><g fill="#222" transform="matrix(-1 0 0 -1 34 34)"><path d="m17 33.5c-4.40730953 0-8.55082035-1.71629906-11.66726017-4.83274078-3.11643982-3.11643982-4.83273983-7.25994873-4.83273983-11.66725922 0-4.40730953 1.71630001-8.55082035 4.83273983-11.66726017s7.25995064-4.83273983 11.66726017-4.83273983c4.40731049 0 8.5508194 1.71630001 11.66725922 4.83273983 3.11644172 3.11643982 4.83274078 7.25995064 4.83274078 11.66726017 0 4.40731049-1.71629906 8.5508194-4.83274078 11.66725922-3.11643982 3.11644172-7.25994873 4.83274078-11.66725922 4.83274078z"/><path d="m17 1c-4.27375031 0-8.2917099 1.66428947-11.31370926 4.68629074-3.02200127 3.02199936-4.68629074 7.03995895-4.68629074 11.31370926s1.66428947 8.2917099 4.68629074 11.31370926c3.02199936 3.02200127 7.03995895 4.68629074 11.31370926 4.68629074s8.2917099-1.66428947 11.31370926-4.68629074c3.02200127-3.02199936 4.68629074-7.03995895 4.68629074-11.31370926s-1.66428947-8.2917099-4.68629074-11.31370926c-3.02199936-3.02200127-7.03995895-4.68629074-11.31370926-4.68629074m0-1c9.38883972 0 17 7.61116028 17 17s-7.61116028 17-17 17-17-7.61116028-17-17 7.61116028-17 17-17z" fill="#ccc"/></g><path d="m612.973 598.461v10h-10" fill="none" stroke="#ccc" transform="matrix(-.70710678 -.70710678 .70710678 -.70710678 20.218 876.152)"/></svg>
